apps/symbolic/preferences-desktop-keyboard-shortcuts-symbolic.svg

<svg height="24" viewBox="0 0 24 24" width="24" xmlns="http://www.w3.org/2000/svg"><path d="m6.6 3a3.6 3.6 0 0 1 3.6 3.6v1.8h3.6v-1.8a3.6 3.6 0 0 1 3.6-3.6 3.6 3.6 0 0 1 3.6 3.6 3.6 3.6 0 0 1 -3.6 3.6h-1.8v3.6h1.8a3.6 3.6 0 0 1 3.6 3.6 3.6 3.6 0 0 1 -3.6 3.6 3.6 3.6 0 0 1 -3.6-3.6v-1.8h-3.6v1.8a3.6 3.6 0 0 1 -3.6 3.6 3.6 3.6 0 0 1 -3.6-3.6 3.6 3.6 0 0 1 3.6-3.6h1.8v-3.6h-1.8a3.6 3.6 0 0 1 -3.6-3.6 3.6 3.6 0 0 1 3.6-3.6m9 14.4a1.8 1.8 0 0 0 1.8 1.8 1.8 1.8 0 0 0 1.8-1.8 1.8 1.8 0 0 0 -1.8-1.8h-1.8zm-1.8-7.2h-3.6v3.6h3.6zm-7.2 5.4a1.8 1.8 0 0 0 -1.8 1.8 1.8 1.8 0 0 0 1.8 1.8 1.8 1.8 0 0 0 1.8-1.8v-1.8zm1.8-9a1.8 1.8 0 0 0 -1.8-1.8 1.8 1.8 0 0 0 -1.8 1.8 1.8 1.8 0 0 0 1.8 1.8h1.8zm9 1.8a1.8 1.8 0 0 0 1.8-1.8 1.8 1.8 0 0 0 -1.8-1.8 1.8 1.8 0 0 0 -1.8 1.8v1.8z" fill="#bebebe" stroke-width=".9"/></svg>

<?xml version="1.0" encoding="UTF-8" standalone="no"?>
<svg
   xmlns:dc="http://purl.org/dc/elements/1.1/"
   xmlns:cc="http://creativecommons.org/ns#"
   xmlns:rdf="http://www.w3.org/1999/02/22-rdf-syntax-ns#"
   xmlns:svg="http://www.w3.org/2000/svg"
   xmlns="http://www.w3.org/2000/svg"
   xmlns:sodipodi="http://sodipodi.sourceforge.net/DTD/sodipodi-0.dtd"
   xmlns:inkscape="http://www.inkscape.org/namespaces/inkscape"
   version="1.1"
   width="24"
   height="24"
   viewBox="0 0 24 24"
   id="svg2"
   inkscape:version="0.92.1 r15371"
   sodipodi:docname="preferences-desktop-keyboard-shortcuts-symbolic.svg">
  <metadata
     id="metadata10">
    <rdf:RDF>
      <cc:Work
         rdf:about="">
        <dc:format>image/svg+xml</dc:format>
        <dc:type
           rdf:resource="http://purl.org/dc/dcmitype/StillImage" />
      </cc:Work>
    </rdf:RDF>
  </metadata>
  <defs
     id="defs8" />
  <sodipodi:namedview
     pagecolor="#ffffff"
     bordercolor="#666666"
     borderopacity="1"
     objecttolerance="10"
     gridtolerance="10"
     guidetolerance="10"
     inkscape:pageopacity="0"
     inkscape:pageshadow="2"
     inkscape:window-width="640"
     inkscape:window-height="480"
     id="namedview6"
     showgrid="false"
     inkscape:zoom="25.291667"
     inkscape:cx="4.9621087"
     inkscape:cy="12"
     inkscape:current-layer="svg2" />
  <path
     d="m 6.6,3 a 3.6,3.6 0 0 1 3.6,3.6 v 1.8 h 3.6 V 6.6 A 3.6,3.6 0 0 1 17.4,3 3.6,3.6 0 0 1 21,6.6 3.6,3.6 0 0 1 17.4,10.2 h -1.8 v 3.6 h 1.8 A 3.6,3.6 0 0 1 21,17.4 3.6,3.6 0 0 1 17.4,21 3.6,3.6 0 0 1 13.8,17.4 v -1.8 h -3.6 v 1.8 A 3.6,3.6 0 0 1 6.6,21 3.6,3.6 0 0 1 3,17.4 3.6,3.6 0 0 1 6.6,13.8 H 8.4 V 10.2 H 6.6 A 3.6,3.6 0 0 1 3,6.6 3.6,3.6 0 0 1 6.6,3 m 9,14.4 a 1.8,1.8 0 0 0 1.8,1.8 1.8,1.8 0 0 0 1.8,-1.8 1.8,1.8 0 0 0 -1.8,-1.8 h -1.8 v 1.8 m -1.8,-7.2 h -3.6 v 3.6 h 3.6 v -3.6 m -7.2,5.4 a 1.8,1.8 0 0 0 -1.8,1.8 1.8,1.8 0 0 0 1.8,1.8 1.8,1.8 0 0 0 1.8,-1.8 V 15.6 H 6.6 m 1.8,-9 A 1.8,1.8 0 0 0 6.6,4.8 1.8,1.8 0 0 0 4.8,6.6 1.8,1.8 0 0 0 6.6,8.4 H 8.4 V 6.6 m 9,1.8 A 1.8,1.8 0 0 0 19.2,6.6 1.8,1.8 0 0 0 17.4,4.8 1.8,1.8 0 0 0 15.6,6.6 v 1.8 z"
     id="path4"
     style="fill:#bebebe;fill-opacity:1;stroke-width:0.89999998"
     inkscape:connector-curvature="0" />
</svg>
